; generated by Slic3r 1.2.9 on 2023-05-13 at 16:36:25

; external perimeters extrusion width = 0.30mm
; perimeters extrusion width = 0.40mm
; infill extrusion width = 0.40mm
; solid infill extrusion width = 0.40mm
; top infill extrusion width = 0.40mm
; support material extrusion width = 0.30mm

M107 ; disable fan
M42 P45 S150 ; Turn on electronics fan

M140 S60 ; Set Bed first_layer_bed_temperature
M104 S190 T0 ; Set Hotend first_layer_temperature_0

G1 Z5 F5000 ; lift nozzle
G28 ; home all axes
G1 Z5 F5000 ; lift nozzle

M109 R190 T0 ; Wait for Hotend first_layer_temperature_0


G21 ; set units to millimeters
G90 ; use absolute coordinates
M82 ; use absolute distances for extrusion
G92 E0 ; reset extrusion distance
G1 E-2.00000 F2400.00000 ; retract
G92 E0 ; reset extrusion distance
G1 Z0.300 F7800.000 ; move to next layer (0)
G1 X82.285 Y86.854 F7800.000 ; move to first skirt point
G1 E2.00000 F2400.00000 ; unretract
G1 X84.042 Y85.345 E2.02293 F1200.000 ; skirt
G1 X86.206 Y84.518 E2.04586 ; skirt
G1 X87.500 Y84.393 E2.05874 ; skirt
G1 X112.500 Y84.393 E2.30624 ; skirt
G1 X114.782 Y84.790 E2.32917 ; skirt
G1 X116.796 Y85.935 E2.35211 F1200.000 ; skirt
G1 X118.305 Y87.692 E2.37504 ; skirt
G1 X119.132 Y89.856 E2.39797 ; skirt
G1 X119.257 Y91.150 E2.41084 ; skirt
G1 X119.257 Y109.000 E2.58756 ; skirt
G1 X118.860 Y111.282 E2.61050 ; skirt
G1 X117.715 Y113.296 E2.63343 ; skirt
G1 X115.958 Y114.805 E2.65636 ; skirt
G1 X113.794 Y115.632 E2.67929 ; skirt
G1 X112.500 Y115.757 E2.69216 ; skirt
G1 X87.500 Y115.757 E2.93967 ; skirt
G1 X85.218 Y115.360 E2.96260 ; skirt
G1 X83.204 Y114.215 E2.98553 ; skirt
G1 X81.695 Y112.458 E3.00847 ; skirt
G1 X80.868 Y110.294 E3.03140 ; skirt
G1 X80.743 Y109.000 E3.04427 ; skirt
G1 X80.743 Y91.150 E3.22099 ; skirt
G1 X81.140 Y88.868 E3.24392 ; skirt
G1 X82.262 Y86.893 E3.26641 ; skirt
G1 X82.488 Y87.025 F7800.000 ; move to first skirt point
G1 X82.533 Y86.948 E3.26729 F1200.000 ; skirt
G1 X84.281 Y85.496 E3.28979 ; skirt
G1 X87.500 Y84.644 E3.32275 ; skirt
G1 X112.500 Y84.644 E3.57026 ; skirt
G1 X114.738 Y85.041 E3.59276 ; skirt
G1 X116.702 Y86.183 E3.61526 F1200.000 ; skirt
G1 X118.154 Y87.931 E3.63776 ; skirt
G1 X119.006 Y91.150 E3.67072 ; skirt
G1 X119.006 Y109.000 E3.84744 ; skirt
G1 X118.609 Y111.238 E3.86994 ; skirt
G1 X117.467 Y113.202 E3.89244 ; skirt
G1 X115.719 Y114.654 E3.91494 ; skirt
G1 X112.500 Y115.506 E3.94790 ; skirt
G1 X87.500 Y115.506 E4.19540 ; skirt
G1 X85.262 Y115.109 E4.21790 ; skirt
G1 X83.298 Y113.967 E4.24040 ; skirt
G1 X81.846 Y112.219 E4.26290 ; skirt
G1 X80.994 Y109.000 E4.29586 ; skirt
G1 X80.994 Y91.150 E4.47258 ; skirt
G1 X81.391 Y88.912 E4.49508 ; skirt
G1 X82.466 Y87.063 E4.51625 ; skirt
G1 X82.690 Y87.197 F7800.000 ; move to first skirt point
G1 X82.781 Y87.043 E4.51803 F1200.000 ; skirt
G1 X84.520 Y85.650 E4.54008 ; skirt
G1 X87.500 Y84.894 E4.57052 ; skirt
G1 X112.500 Y84.894 E4.81803 ; skirt
G1 X114.692 Y85.291 E4.84008 ; skirt
G1 X116.607 Y86.431 E4.86214 F1200.000 ; skirt
G1 X118.000 Y88.170 E4.88420 ; skirt
G1 X118.756 Y91.150 E4.91464 ; skirt
G1 X118.756 Y109.000 E5.09136 ; skirt
G1 X118.359 Y111.192 E5.11342 ; skirt
G1 X117.219 Y113.107 E5.13547 ; skirt
G1 X115.480 Y114.500 E5.15753 ; skirt
G1 X112.500 Y115.256 E5.18797 ; skirt
G1 X87.500 Y115.256 E5.43547 ; skirt
G1 X85.308 Y114.859 E5.45753 ; skirt
G1 X83.393 Y113.719 E5.47959 ; skirt
G1 X82.000 Y111.980 E5.50165 ; skirt
G1 X81.244 Y109.000 E5.53209 ; skirt
G1 X81.244 Y91.150 E5.70881 ; skirt
G1 X81.641 Y88.958 E5.73086 ; skirt
G1 X82.667 Y87.236 E5.75071 ; skirt
G1 X82.889 Y87.371 F7800.000 ; move to first skirt point
G1 X83.029 Y87.141 E5.75338 F1200.000 ; skirt
G1 X84.758 Y85.808 E5.77498 ; skirt
G1 X87.500 Y85.145 E5.80292 ; skirt
G1 X112.500 Y85.145 E6.05042 ; skirt
G1 X114.646 Y85.542 E6.07203 ; skirt
G1 X116.509 Y86.679 E6.09364 F1200.000 ; skirt
G1 X117.842 Y88.408 E6.11525 ; skirt
G1 X118.505 Y91.150 E6.14318 ; skirt
G1 X118.505 Y109.000 E6.31990 ; skirt
G1 X118.108 Y111.146 E6.34151 ; skirt
G1 X116.971 Y113.009 E6.36312 ; skirt
G1 X115.242 Y114.342 E6.38473 ; skirt
G1 X112.500 Y115.005 E6.41266 ; skirt
G1 X87.500 Y115.005 E6.66016 ; skirt
G1 X85.354 Y114.608 E6.68177 ; skirt
G1 X83.491 Y113.471 E6.70338 ; skirt
G1 X82.158 Y111.742 E6.72499 ; skirt
G1 X81.495 Y109.000 E6.75292 ; skirt
G1 X81.495 Y91.150 E6.92964 ; skirt
G1 X81.892 Y89.004 E6.95125 ; skirt
G1 X82.865 Y87.410 E6.96974 ; skirt
G1 X83.085 Y87.547 F7800.000 ; move to first skirt point
G1 X83.277 Y87.241 E6.97332 F1200.000 ; skirt
G1 X84.994 Y85.970 E6.99447 ; skirt
G1 X87.500 Y85.396 E7.01992 ; skirt
G1 X112.500 Y85.396 E7.26743 ; skirt
G1 X114.599 Y85.792 E7.28858 ; skirt
G1 X116.409 Y86.927 E7.30973 F1200.000 ; skirt
G1 X117.680 Y88.644 E7.33088 ; skirt
G1 X118.254 Y91.150 E7.35633 ; skirt
G1 X118.254 Y109.000 E7.53305 ; skirt
G1 X117.858 Y111.099 E7.55420 ; skirt
G1 X116.723 Y112.909 E7.57535 ; skirt
G1 X115.006 Y114.180 E7.59650 ; skirt
G1 X112.500 Y114.754 E7.62195 ; skirt
G1 X87.500 Y114.754 E7.86945 ; skirt
G1 X85.401 Y114.358 E7.89060 ; skirt
G1 X83.591 Y113.223 E7.91175 ; skirt
G1 X82.320 Y111.506 E7.93290 ; skirt
G1 X81.746 Y109.000 E7.95835 ; skirt
G1 X81.746 Y91.150 E8.13507 ; skirt
G1 X82.142 Y89.051 E8.15622 ; skirt
G1 X83.061 Y87.585 E8.17335 ; skirt
G1 X83.278 Y87.726 F7800.000 ; move to first skirt point
G1 X83.525 Y87.344 E8.17785 F1200.000 ; skirt
G1 X85.229 Y86.137 E8.19852 ; skirt
G1 X87.500 Y85.646 E8.22152 ; skirt
G1 X112.500 Y85.646 E8.46903 ; skirt
G1 X114.551 Y86.043 E8.48971 ; skirt
G1 X116.306 Y87.175 E8.51039 F1200.000 ; skirt
G1 X117.513 Y88.879 E8.53107 ; skirt
G1 X118.004 Y91.150 E8.55407 ; skirt
G1 X118.004 Y109.000 E8.73078 ; skirt
G1 X117.607 Y111.051 E8.75146 ; skirt
G1 X116.475 Y112.806 E8.77214 ; skirt
G1 X114.771 Y114.013 E8.79282 ; skirt
G1 X112.500 Y114.504 E8.81582 ; skirt
G1 X87.500 Y114.504 E9.06333 ; skirt
G1 X85.449 Y114.107 E9.08401 ; skirt
G1 X83.694 Y112.975 E9.10469 ; skirt
G1 X82.487 Y111.271 E9.12537 ; skirt
G1 X81.996 Y109.000 E9.14836 ; skirt
G1 X81.996 Y91.150 E9.32508 ; skirt
G1 X82.393 Y89.099 E9.34576 ; skirt
G1 X83.254 Y87.763 E9.36150 ; skirt
G1 X83.469 Y87.906 F7800.000 ; move to first skirt point
G1 X83.772 Y87.449 E9.36693 F1200.000 ; skirt
G1 X85.463 Y86.308 E9.38712 ; skirt
G1 X87.500 Y85.897 E9.40770 ; skirt
G1 X112.500 Y85.897 E9.65520 ; skirt
G1 X114.501 Y86.293 E9.67540 ; skirt
G1 X116.201 Y87.422 E9.69560 F1200.000 ; skirt
G1 X117.342 Y89.113 E9.71580 ; skirt
G1 X117.753 Y91.150 E9.73637 ; skirt
G1 X117.753 Y109.000 E9.91309 ; skirt
G1 X117.357 Y111.001 E9.93329 ; skirt
G1 X116.228 Y112.701 E9.95349 ; skirt
G1 X114.537 Y113.842 E9.97369 ; skirt
G1 X112.500 Y114.253 E9.99426 ; skirt
G1 X87.500 Y114.253 E10.24176 ; skirt
G1 X85.499 Y113.857 E10.26196 ; skirt
G1 X83.799 Y112.728 E10.28216 ; skirt
G1 X82.658 Y111.037 E10.30236 ; skirt
G1 X82.247 Y109.000 E10.32293 ; skirt
G1 X82.247 Y91.150 E10.49965 ; skirt
G1 X82.643 Y89.149 E10.51985 ; skirt
G1 X83.444 Y87.943 E10.53417 ; skirt
G1 X83.655 Y88.088 F7800.000 ; move to first skirt point
G1 X84.019 Y87.557 E10.54054 F1200.000 ; skirt
G1 X85.695 Y86.484 E10.56025 ; skirt
G1 X87.500 Y86.148 E10.57843 ; skirt
G1 X112.500 Y86.148 E10.82593 ; skirt
G1 X114.451 Y86.544 E10.84564 ; skirt
G1 X116.093 Y87.669 E10.86534 F1200.000 ; skirt
G1 X117.166 Y89.345 E10.88505 ; skirt
G1 X117.502 Y91.150 E10.90322 ; skirt
G1 X117.502 Y109.000 E11.07994 ; skirt
G1 X117.106 Y110.951 E11.09965 ; skirt
G1 X115.981 Y112.593 E11.11936 ; skirt
G1 X114.305 Y113.666 E11.13906 ; skirt
G1 X112.500 Y114.002 E11.15724 ; skirt
G1 X87.500 Y114.002 E11.40474 ; skirt
G1 X85.549 Y113.606 E11.42445 ; skirt
G1 X83.907 Y112.481 E11.44416 ; skirt
G1 X82.834 Y110.805 E11.46386 ; skirt
G1 X82.498 Y109.000 E11.48204 ; skirt
G1 X82.498 Y91.150 E11.65876 ; skirt
G1 X82.894 Y89.199 E11.67846 ; skirt
G1 X83.630 Y88.125 E11.69135 ; skirt
G1 X83.838 Y88.273 F7800.000 ; move to first skirt point
G1 X84.265 Y87.669 E11.69868 F1200.000 ; skirt
G1 X85.926 Y86.667 E11.71788 ; skirt
G1 X87.500 Y86.398 E11.73369 ; skirt
G1 X112.500 Y86.398 E11.98120 ; skirt
G1 X114.399 Y86.794 E12.00040 ; skirt
G1 X115.981 Y87.915 E12.01960 F1200.000 ; skirt
G1 X116.983 Y89.576 E12.03880 ; skirt
G1 X117.252 Y91.150 E12.05461 ; skirt
G1 X117.252 Y109.000 E12.23133 ; skirt
G1 X116.856 Y110.899 E12.25053 ; skirt
G1 X115.735 Y112.481 E12.26973 ; skirt
G1 X114.074 Y113.483 E12.28893 ; skirt
G1 X112.500 Y113.752 E12.30474 ; skirt
G1 X87.500 Y113.752 E12.55225 ; skirt
G1 X85.601 Y113.356 E12.57145 ; skirt
G1 X84.019 Y112.235 E12.59065 ; skirt
G1 X83.017 Y110.574 E12.60985 ; skirt
G1 X82.748 Y109.000 E12.62566 ; skirt
G1 X82.748 Y91.150 E12.80238 ; skirt
G1 X83.144 Y89.251 E12.82158 ; skirt
G1 X83.811 Y88.309 E12.83301 ; skirt
G1 X84.015 Y88.459 F7800.000 ; move to first skirt point
G1 X84.511 Y87.784 E12.84131 F1200.000 ; skirt
G1 X86.154 Y86.855 E12.85999 ; skirt
G1 X87.500 Y86.649 E12.87347 ; skirt
G1 X112.500 Y86.649 E13.12098 ; skirt
G1 X114.345 Y87.044 E13.13966 ; skirt
G1 X115.866 Y88.161 E13.15834 F1200.000 ; skirt
G1 X116.795 Y89.804 E13.17702 ; skirt
G1 X117.001 Y91.150 E13.19051 ; skirt
G1 X117.001 Y109.000 E13.36722 ; skirt
G1 X116.606 Y110.845 E13.38591 ; skirt
G1 X115.489 Y112.366 E13.40459 ; skirt
G1 X113.846 Y113.295 E13.42327 ; skirt
G1 X112.500 Y113.501 E13.43675 ; skirt
G1 X87.500 Y113.501 E13.68426 ; skirt
G1 X85.655 Y113.106 E13.70294 ; skirt
G1 X84.134 Y111.989 E13.72162 ; skirt
G1 X83.205 Y110.346 E13.74031 ; skirt
G1 X82.999 Y109.000 E13.75379 ; skirt
G1 X82.999 Y91.150 E13.93051 ; skirt
G1 X83.394 Y89.305 E13.94919 ; skirt
G1 X83.989 Y88.496 E13.95913 ; skirt
G1 X84.188 Y88.648 F7800.000 ; move to first skirt point
G1 X84.757 Y87.903 E13.96841 F1200.000 ; skirt
G1 X86.380 Y87.050 E13.98656 ; skirt
G1 X87.500 Y86.899 E13.99775 ; skirt
G1 X112.500 Y86.899 E14.24526 ; skirt
G1 X114.290 Y87.295 E14.26341 ; skirt
G1 X115.747 Y88.407 E14.28155 F1200.000 ; skirt
G1 X116.600 Y90.030 E14.29970 ; skirt
G1 X116.751 Y91.150 E14.31089 ; skirt
G1 X116.751 Y109.000 E14.48761 ; skirt
G1 X116.355 Y110.790 E14.50576 ; skirt
G1 X115.243 Y112.247 E14.52391 ; skirt
G1 X113.620 Y113.100 E14.54206 ; skirt
G1 X112.500 Y113.251 E14.55325 ; skirt
G1 X87.500 Y113.251 E14.80076 ; skirt
G1 X85.710 Y112.855 E14.81891 ; skirt
G1 X84.253 Y111.743 E14.83705 ; skirt
G1 X83.400 Y110.120 E14.85520 ; skirt
G1 X83.249 Y109.000 E14.86639 ; skirt
G1 X83.249 Y91.150 E15.04311 ; skirt
G1 X83.645 Y89.360 E15.06126 ; skirt
G1 X84.161 Y88.684 E15.06969 ; skirt
G1 E13.06969 F2400.00000 ; retract
G92 E0 ; reset extrusion distance
G1 X88.144 Y94.920 F7800.000 ; move to first perimeter point
G1 E2.00000 F2400.00000 ; unretract
G1 X88.144 Y91.794 E2.03095 F1440.000 ; perimeter
G1 X111.856 Y91.794 E2.26571 ; perimeter
G1 X111.856 Y108.356 E2.42968 ; perimeter
G1 X88.144 Y108.356 E2.66444 F1440.000 ; perimeter
G1 X88.144 Y94.965 E2.79702 ; perimeter
G1 X87.893 Y94.965 F7800.000 ; move to first perimeter point
G1 X87.893 Y91.543 E2.83089 F1440.000 ; perimeter
G1 X112.107 Y91.543 E3.07061 ; perimeter
G1 X112.107 Y108.607 E3.23955 ; perimeter
G1 X87.893 Y108.607 E3.47927 F1440.000 ; perimeter
G1 X87.893 Y95.010 E3.61389 ; perimeter
G1 X87.650 Y95.010 F7800.000 ; move to first perimeter point
G1 X87.650 Y91.300 E3.64841 F720.000 ; perimeter
G1 X112.350 Y91.300 E3.87831 ; perimeter
G1 X112.350 Y108.850 E4.04166 ; perimeter
G1 X87.650 Y108.850 E4.27156 F720.000 ; perimeter
G1 X87.650 Y95.055 E4.39996 ; perimeter
G1 X87.910 Y94.860 F7800.000 ; move inwards before travel
G1 X88.430 Y108.216 F7800.000 ; move to first infill point
G1 X88.284 Y108.070 E4.40202 F720.000 ; infill
G1 X88.284 Y107.715 E4.40554 ; infill
G1 X88.785 Y108.216 E4.41257 ; infill
G1 X89.140 Y108.216 E4.41610 ; infill
G1 X88.284 Y107.360 E4.42812 ; infill
G1 X88.284 Y107.005 E4.43164 ; infill
G1 X89.495 Y108.216 E4.44864 ; infill
G1 X89.850 Y108.216 E4.45216 ; infill
G1 X88.284 Y106.650 E4.47415 ; infill
G1 X88.284 Y106.294 E4.47767 ; infill
G1 X90.206 Y108.216 E4.50464 ; infill
G1 X90.561 Y108.216 E4.50816 ; infill
G1 X88.284 Y105.939 E4.54011 ; infill
G1 X88.284 Y105.584 E4.54363 ; infill
G1 X90.916 Y108.216 E4.58057 ; infill
G1 X91.271 Y108.216 E4.58409 ; infill
G1 X88.284 Y105.229 E4.62601 ; infill
G1 X88.284 Y104.874 E4.62953 ; infill
G1 X91.626 Y108.216 E4.67643 ; infill
G1 X91.981 Y108.216 E4.67995 ; infill
G1 X88.284 Y104.519 E4.73183 ; infill
G1 X88.284 Y104.163 E4.73536 ; infill
G1 X92.337 Y108.216 E4.79222 ; infill
G1 X92.692 Y108.216 E4.79574 ; infill
G1 X88.284 Y103.808 E4.85759 ; infill
G1 X88.284 Y103.453 E4.86111 ; infill
G1 X93.047 Y108.216 E4.92794 ; infill
G1 X93.402 Y108.216 E4.93147 ; infill
G1 X88.284 Y103.098 E5.00328 ; infill
G1 X88.284 Y102.743 E5.00681 ; infill
G1 X93.757 Y108.216 E5.08360 ; infill
G1 X94.112 Y108.216 E5.08712 ; infill
G1 X88.284 Y102.388 E5.16890 ; infill
G1 X88.284 Y102.032 E5.17243 ; infill
G1 X94.468 Y108.216 E5.25919 ; infill
G1 X94.823 Y108.216 E5.26271 ; infill
G1 X88.284 Y101.677 E5.35446 ; infill
G1 X88.284 Y101.322 E5.35798 ; infill
G1 X95.178 Y108.216 E5.45471 ; infill
G1 X95.533 Y108.216 E5.45823 ; infill
G1 X88.284 Y100.967 E5.55994 ; infill
G1 X88.284 Y100.612 E5.56347 ; infill
G1 X95.888 Y108.216 E5.67016 ; infill
G1 X96.243 Y108.216 E5.67368 ; infill
G1 X88.284 Y100.257 E5.78536 ; infill
G1 X88.284 Y99.901 E5.78888 ; infill
G1 X96.599 Y108.216 E5.90554 ; infill
G1 X96.954 Y108.216 E5.90907 ; infill
G1 X88.284 Y99.546 E6.03071 ; infill
G1 X88.284 Y99.191 E6.03423 ; infill
G1 X97.309 Y108.216 E6.16086 ; infill
G1 X97.664 Y108.216 E6.16438 ; infill
G1 X88.284 Y98.836 E6.29599 ; infill
G1 X88.284 Y98.481 E6.29951 ; infill
G1 X98.019 Y108.216 E6.43610 ; infill
G1 X98.374 Y108.216 E6.43963 ; infill
G1 X88.284 Y98.126 E6.58120 ; infill
G1 X88.284 Y97.770 E6.58473 ; infill
G1 X98.730 Y108.216 E6.73128 ; infill
G1 X99.085 Y108.216 E6.73481 ; infill
G1 X88.284 Y97.415 E6.88635 ; infill
G1 X88.284 Y97.060 E6.88987 ; infill
G1 X99.440 Y108.216 E7.04639 ; infill
G1 X99.795 Y108.216 E7.04992 ; infill
G1 X88.284 Y96.705 E7.21142 ; infill
G1 X88.284 Y96.350 E7.21495 ; infill
G1 X100.150 Y108.216 E7.38143 ; infill
G1 X100.505 Y108.216 E7.38496 ; infill
G1 X88.284 Y95.995 E7.55643 ; infill
G1 X88.284 Y95.639 E7.55995 ; infill
G1 X100.861 Y108.216 E7.73641 ; infill
G1 X101.216 Y108.216 E7.73993 ; infill
G1 X88.284 Y95.284 E7.92137 ; infill
G1 X88.284 Y94.929 E7.92489 ; infill
G1 X101.571 Y108.216 E8.11131 ; infill
G1 X101.926 Y108.216 E8.11484 ; infill
G1 X88.284 Y94.574 E8.30624 ; infill
G1 X88.284 Y94.219 E8.30976 ; infill
G1 X102.281 Y108.216 E8.50615 ; infill
G1 X102.636 Y108.216 E8.50967 ; infill
G1 X88.284 Y93.864 E8.71104 ; infill
G1 X88.284 Y93.508 E8.71457 ; infill
G1 X102.992 Y108.216 E8.92092 ; infill
G1 X103.347 Y108.216 E8.92444 ; infill
G1 X88.284 Y93.153 E9.13578 ; infill
G1 X88.284 Y92.798 E9.13930 ; infill
G1 X103.702 Y108.216 E9.35562 ; infill
G1 X104.057 Y108.216 E9.35914 ; infill
G1 X88.284 Y92.443 E9.58044 ; infill
G1 X88.284 Y92.088 E9.58397 ; infill
G1 X104.412 Y108.216 E9.81025 ; infill
G1 X104.767 Y108.216 E9.81378 ; infill
G1 X88.484 Y91.934 E10.04222 ; infill
G1 X88.840 Y91.934 E10.04575 ; infill
G1 X105.122 Y108.216 E10.27420 ; infill
G1 X105.478 Y108.216 E10.27772 ; infill
G1 X89.195 Y91.934 E10.50617 ; infill
G1 X89.550 Y91.934 E10.50969 ; infill
G1 X105.833 Y108.216 E10.73814 ; infill
G1 X106.188 Y108.216 E10.74166 ; infill
G1 X89.905 Y91.934 E10.97011 ; infill
G1 X90.260 Y91.934 E10.97363 ; infill
G1 X106.543 Y108.216 E11.20208 ; infill
G1 X106.898 Y108.216 E11.20561 ; infill
G1 X90.615 Y91.934 E11.43405 ; infill
G1 X90.971 Y91.934 E11.43758 ; infill
G1 X107.253 Y108.216 E11.66603 ; infill
G1 X107.609 Y108.216 E11.66955 ; infill
G1 X91.326 Y91.934 E11.89800 ; infill
G1 X91.681 Y91.934 E11.90152 ; infill
G1 X107.964 Y108.216 E12.12997 ; infill
G1 X108.319 Y108.216 E12.13349 ; infill
G1 X92.036 Y91.934 E12.36194 ; infill
G1 X92.391 Y91.934 E12.36546 ; infill
G1 X108.674 Y108.216 E12.59391 ; infill
G1 X109.029 Y108.216 E12.59744 ; infill
